X: 1
T: Phill's Big Squeeze
C: James Gray
R: reel
B: Alex & James Gray "Tweeddale Collection" p.46 #2
N: Tune for Carlin's Loup
Z: 2017 John Chambers <jc:trillian.mit.edu>
M: C
L: 1/8
K: Em
z2 |\
"Em"E2BE G2BE | G2GF EFGE | "D"FGAD F2AD | F2AD F2FG |
"Em"E2BE G2BE | G2GF EFGA | "G"B^cdB "D"AFDF | "Bm"GEFD "Em"E2 :|
B2 |\
"Em"e2Bg eBgB | e2Bg e2B^c | "D"d2Af dAfg | agfe d^cd^d |
"Em"e2Bg eBgB | e2Bg e2B^c | "G"d^cdB "D"AFDF | "Bm"GEFD "Em"E4 ||
"Em"e2Bg eBgB | e2Bg e2B^c | "D"d2Af dAfg | agfe d^cd^d |
"Em"e2Bg eBgB | e2Bg e2B^c | "G"d^cdB "D"Adfa | "Bm"gefd "Em"e2 |]
